!!!COM: Dunstable, John
!!!OTL: Sancta Maria succure miseris
!!!ONM: No. 49
!!!YOR: from: "Musica Britannica" Vol. 8, edited by Manfred F. Bukofzer,
!!!YOR: 2nd rev. ed. (prepared by Margaret Bent, Ian Bent & Brian Trowell), pp.122-123
!!!YOO: Royal Musical Association (London)
!!!YOY: 1970
**kern	**kern	**kern
*ICvox	*ICvox	*ICvox
! tenor	! contratenor	! discantus
*M3/4	*M3/4	*M3/4
=1	=1	=1
*>A	*>A	*>A
!! Section 'A'; (O) mensuration.
[2.f	[2.F	2.f
=2	=2	=2
2.f]	2.F]	4.a
.	.	8b
.	.	4cc
=3	=3	=3
2.c	4.F	4.cc
.	8G	8b
.	8A	8a
.	8B-	8g
=4	=4	=4
2e	4.c	4g
.	.	4r
.	8B-	.
4g	[4G	4b
=5	=5	=5
4g	4G]	8b
.	.	4dd
8f	4r	.
8e	.	8cc
4d	4f	8a
.	.	8bnx
=6	=6	=6
4c	8g	2.cc
.	8e	.
4A	8f	.
.	4a	.
8F	.	.
[8G	8g	.
=7	=7	=7
8G]	8e	2r
8A	8f	.
8B-	8d	.
8G	8g	.
4A	8f#x	4cc
.	16e	.
.	16f#x	.
=8	=8	=8
[2.G	2.g	[2.dd
=9	=9	=9
2.G]	4r	4dd]
.	4d	2b
.	4e	.
=10	=10	=10
2.F	2.f	4a
.	.	4cc
.	.	8dd
.	.	8cc
=11	=11	=11
2.f	2.F	8cc
.	.	16b
.	.	16cc
.	.	8dd
.	.	4cc
.	.	8a
=12	=12	=12
2e	2c	2.g
[4g	4G	.
=13	=13	=13
4g]	2.B-	4b
2f	.	4.dd
.	.	8cc
=14	=14	=14
4f	4F	4a
4e	4c	8g
.	.	4cc
4c	4r	.
.	.	[8g
=15	=15	=15
4e	4c	8g]
.	.	8cc
2d	4.f	8dd
.	.	8a
.	.	4bnx
.	8d	.
=16	=16	=16
8e	8c	8g
8d	8d	4a
8c	8e	.
8B-	4d	8g
4A	.	8e
.	8c	8f#x
=17	=17	=17
[2.G	4d	2.g
.	4.e-x	.
.	8d	.
=18	=18	=18
2.G]	4d	2.r
.	8B-	.
.	16A	.
.	16B-	.
.	8c	.
.	8B-	.
=19	=19	=19
[2.d	[2.G	4.b
.	.	8cc
.	.	4dd
=20	=20	=20
2d]	2.G]	4dd
.	.	8b
.	.	4b
4e	.	.
.	.	8g
=21	=21	=21
2f	2F	4.a
.	.	8g
4g	4c	4e
=22	=22	=22
4f	4d	2d
2d	4g	.
.	4r	8f
.	.	8g
=23	=23	=23
8d	2.r	4a
4A	.	.
.	.	8f
4d	.	8d
.	.	4e
8c#x	.	.
=24	=24	=24
2.d	4.B-	4d
.	.	4r
.	8A	.
.	8B-	4dd
.	8G	.
=25	=25	=25
2.f	2.F	4dd
.	.	4cc
.	.	8a
.	.	8g
=26	=26	=26
2e	2c	4g
.	.	8a
.	.	4cc
4c	8g	.
.	8f	8b-
=27	=27	=27
4d	4.f	8b-
.	.	8f
2c	.	8b-
.	16e	4a
.	16f	.
.	8e	.
.	8d	8g
=28	=28	=28
[2.B-	4f	4b-
.	4r	8g
.	.	8f
.	4f	8b
.	.	8a
=29	=29	=29
2.B-]	2d	8f
.	.	4g
.	.	8e
.	8f	4d
.	8g	.
=30	=30	=30
4A	4.a	4c
2c	.	4r
.	8g	.
.	4e	8g
.	.	8a
=31	=31	=31
8e	8g	8cc
4f	8f	16bnx
.	.	16cc
.	8d	8dd
8c	4g	4cc
4d	.	.
.	8f	8bnx
=32	=32	=32
4c	8g	4.cc
.	8e	.
2F	8f	.
.	8e	8a
.	4c	4cc
=33	=33	=33
2B-	2G	4.dd
.	.	8cc
4G	8d	8dd
.	8e	8cc
=34	=34	=34
2F	4.f	8a
.	.	4cc
.	4d	8b
8B-	.	8g
8A	8c	8b
=35	=35	=35
4F	2c	8a
.	.	2f
4A	.	.
4G	8B-	.
.	8A	8e
=36	=36	=36
8F	8c	4f
4B-	8d	.
.	8B-	8g
8A	4c	4a
4F	.	.
.	8A	8f
=37	=37	=37
8G	4G	4b
4B-	.	.
.	8d	8g
8c	8e	4a
4d	8f	.
.	[8d	8f
=38	=38	=38
8B-	8d]	8b
4c	8.e	8a
.	.	16g
.	16c	16f
8A	4c	4f
4G	.	.
.	8Bnx	8e
=39	=39	=39
[2.F	[2.c	[2.f
=39a	=39a	=39a
2.F]	2.c]	2.f]
=40	=40	=40
*>B	*>B	*>B
!! Section 'B'; (O) mensuration.
2.f	2.r	2.f
=41	=41	=41
2e	2.r	2.g
[4g	.	.
=42	=42	=42
4g]	2.r	4e
2f	.	4.a
.	.	8g
=43	=43	=43
4e	2.r	4.cc
2d	.	.
.	.	16bnx
.	.	16cc
.	.	8bnx
.	.	8a
=44	=44	=44
2c	2.r	4cc
.	.	4r
4r	.	4cc
=45	=45	=45
2.g	2.r	4b
.	.	4.dd
.	.	8cc
=46	=46	=46
2a	2.r	4a
.	.	8f
.	.	4f
4g	.	.
.	.	8e
=47	=47	=47
4f	2.r	8f
.	.	8.a
8e	.	.
.	.	16g
8c	.	8a
8d	.	8b
8e	.	[8cc
=48	=48	=48
8f	2.r	8cc]
4g	.	8b
.	.	4g
8e	.	.
4f	.	8f
.	.	8a
=49	=49	=49
8d	2.r	8b
4c	.	8cc
.	.	8a
8G	.	8.b
8B-	.	.
.	.	16a
[8d	.	16g
.	.	16f
=50	=50	=50
8d]	2.r	8.f
8c	.	.
.	.	16e
8B-	.	8g
8F	.	4f
4G	.	.
.	.	8e
=51	=51	=51
2.F	2.r	2.f
=52	=52	=52
2.r	2.r	2.r
=53	=53	=53
2.c	2.r	4.e
.	.	8f
.	.	4g
=54	=54	=54
2F	2.r	2a
4c	.	8g
.	.	8e
=55	=55	=55
8A	2.r	8f
8G	.	4g
8c	.	.
4c	.	8e
.	.	4d
8Bnx	.	.
=56	=56	=56
2.c	2.r	4c
.	.	4r
.	.	8g
.	.	8a
=57	=57	=57
4e	2.r	8g
.	.	4.cc
8f	.	.
8c	.	.
4d	.	8a
.	.	8bnx
=58	=58	=58
4c	2.r	4cc
4d	.	8bnx
.	.	4dd
8f	.	.
8e	.	[8ee
=59	=59	=59
4c	2.r	8ee]
.	.	8cc
8d	.	8bnx
8e	.	8cc
8f	.	4dd
[8g	.	.
=60	=60	=60
4g]	2.r	8bnx
.	.	4g
8e	.	.
8c	.	8.cc
4d	.	.
.	.	16a
.	.	8bnx
=61	=61	=61
[2.c	2.r	[2.cc
=61a	=61a	=61a
2.c]	2.r	2.cc]
=62	=62	=62
*>C	*>C	*>C
!! Section 'C'; (C/) mensuration.
*M2/2	*M2/2	*M2/2
[1F	[1f	2a
.	.	4cc
.	.	[4dd
=63	=63	=63
1F]	2f]	4dd]
.	.	4cc
.	4e	2a
.	[4d	.
=64	=64	=64
4B-	4d]	2g
4c	4c	.
2d	4B-	4f
.	[4G	[4b-
=65	=65	=65
4B-	4G]	4b-]
4c	4F	4a
4A	4c	2f
[4B-	4d	.
=66	=66	=66
*M3/2	*M3/2	*M3/2
4B-]	4B-	4g
4A	2c	4.a
2F	.	.
.	.	8f
.	4A	2f
2G	4B-	.
.	8A	4e
.	8B-	.
=67	=67	=67
*M2/2	*M2/2	*M2/2
2F	2c	1f
4A	4r	.
4B-	4d	.
=68	=68	=68
2c	4c	4r
.	4e	4a
4d	4f	4b
4c	4g	[4cc
=69	=69	=69
*M3/2	*M3/2	*M3/2
2f	4f	4cc]
.	4d	4.dd
2e	4g	.
.	.	8cc
.	2g	2cc
2d	.	.
.	4f	8b
.	.	8a
=70	=70	=70
*M2/2	*M2/2	*M2/2
1c	2g	2cc
.	2e	4r
.	.	4a
=71	=71	=71
4A	4f	4cc
2G	4g	4b
.	4e	2g
4B-	[4d	.
=72	=72	=72
2d	4d]	4f
.	4f	4.b
2c	4e	.
.	.	8a
.	[4c	[4cc
=73	=73	=73
4A	4c]	4cc]
2G	4d	4b
.	4e	4g
4F	4f	[4a
=74	=74	=74
4G	4d	8a]
.	.	8g
4B-	2d	2g
2A	.	.
.	4c	8f#x
.	.	8e
=75	=75	=75
1G	1d	2g
.	.	2r
=76	=76	=76
2r	2c	2a
[2g	[2G	[2b-
=77	=77	=77
2g]	2G]	4b-]
.	.	2dd
[2f	2r	.
.	.	4cc
=78	=78	=78
2f]	2d	2a
4e	2e	2g
4c	.	.
=79	=79	=79
1d	4d	4f
.	2.f	4b
.	.	4a
.	.	[4f
=80	=80	=80
4A	4a	4f]
4c	2a	4e
2B-	.	2d
.	4g	.
=81	=81	=81
4A	2a	2c
2c	.	.
.	4g	2r
[4d	4f	.
=82	=82	=82
4d]	4d	4f
4c	4r	4e
4B-	2d	2g
[4G	.	.
=83	=83	=83
4G]	4e	4b
4F	2f	4a
2B-	.	4f
.	4d	4g
=84	=84	=84
4A	1c	4.a
2F	.	.
.	.	8f
.	.	4.f
4A	.	.
.	.	8e
=85	=85	=85
4B-	4G	4d
2c	4F	4c
.	4A	4e
[4B-	4G	[4g
=86	=86	=86
4B-]	4B-	8g]
.	.	8f
4F	2c	4.f
2G	.	.
.	.	16e
.	.	16f
.	8Bnx	8e
.	8A	8d
=87	=87	=87
1F	1c	1f
==	==	==
*-	*-	*-
!!!ENC: Mark Laxton
!!!EDD: Mark Laxton
!!!YEC: Mark Laxton, 1987
!!!EMD: Reference records added by D. Huron, 2001
!!!EEV: 1.1
